X:1
T: Dalhousie Jig
C:Bruce Shawyer
R:Jig
Q:180
K:A
M:6/8
L:1/16
c2|e4c2 A2B2c2|d4B2 G2A2B2|A2B2c2 B2c2d2|e4c2 B4c2|e4c2 A2B2c2|d4B2 G2A2B2|A2c2e2 B2c2d2|c6 A4c2|
e4c2 A2B2c2|d4B2 G2A2B2|A2B2c2 B2c2d2|e4c2 B4c2|e4c2 A2B2c2|d4B2 G2A2B2|A2c2e2 B2c2d2|c6 A4e2|
c4e2 A4e2|f2e2d2 c2B2A2|c4e2 f2g2a2|g4e2 e4e2|f2f2d2 e2e2c2|d4B2 c4e2|^d2e2f2 f2g2a2|b4g2 e4e2|
c4e2 A4e2|f2e2d2 c2B2A2|c4e2 f2g2a2|g4e2 e4e2|f2f2d2 e2e2c2|d2d2B2 c2B2A2|A2c2e2 B2c2d2|c6 A4||
